src/Static/Icons/insight.svg

<?xml version="1.0" encoding="UTF-8"?>
<svg width="206px" height="206px" viewBox="0 0 206 206" version="1.1" xmlns="http://www.w3.org/2000/svg" xmlns:xlink="http://www.w3.org/1999/xlink">
    <title>insights-24px</title>
    <defs>
        <path d="M170.909091,42.9411765 C158.518182,42.9411765 151.596364,55.3082353 154.416364,64.4976471 L124.08,95.0717647 C121.516364,94.2988235 117.756364,94.2988235 115.192727,95.0717647 L93.4018182,73.1717647 C96.3072727,63.9823529 89.3854545,51.5294118 76.9090909,51.5294118 C64.5181818,51.5294118 57.5109091,63.8964706 60.4163636,73.1717647 L21.4490909,112.248235 C12.3054545,109.414118 0,116.370588 0,128.823529 C0,138.270588 7.69090909,146 17.0909091,146 C29.4818182,146 36.4036364,133.632941 33.5836364,124.443529 L72.4654545,85.2811765 C75.0290909,86.0541176 78.7890909,86.0541176 81.3527273,85.2811765 L103.143636,107.181176 C100.238182,116.370588 107.16,128.823529 119.636364,128.823529 C132.027273,128.823529 139.034545,116.456471 136.129091,107.181176 L166.550909,76.6929412 C175.694545,79.5270588 188,72.5705882 188,60.1176471 C188,50.6705882 180.309091,42.9411765 170.909091,42.9411765 Z" id="path-1"></path>
        <filter x="-4.8%" y="-6.8%" width="109.6%" height="117.5%" filterUnits="objectBoundingBox" id="filter-2">
            <feMorphology radius="2" operator="dilate" in="SourceAlpha" result="shadowSpreadOuter1"></feMorphology>
            <feOffset dx="0" dy="2" in="shadowSpreadOuter1" result="shadowOffsetOuter1"></feOffset>
            <feGaussianBlur stdDeviation="2" in="shadowOffsetOuter1" result="shadowBlurOuter1"></feGaussianBlur>
            <feComposite in="shadowBlurOuter1" in2="SourceAlpha" operator="out" result="shadowBlurOuter1"></feComposite>
            <feColorMatrix values="0 0 0 0 0   0 0 0 0 0   0 0 0 0 0  0 0 0 0.5 0" type="matrix" in="shadowBlurOuter1"></feColorMatrix>
        </filter>
        <polygon id="path-3" points="119.636364 51.5294118 127.669091 33.7517647 145.272727 25.7647059 127.669091 17.7776471 119.636364 0 111.774545 17.7776471 94 25.7647059 111.774545 33.7517647"></polygon>
        <filter x="-20.8%" y="-16.8%" width="141.5%" height="141.4%" filterUnits="objectBoundingBox" id="filter-4">
            <feMorphology radius="1.5" operator="dilate" in="SourceAlpha" result="shadowSpreadOuter1"></feMorphology>
            <feOffset dx="0" dy="2" in="shadowSpreadOuter1" result="shadowOffsetOuter1"></feOffset>
            <feGaussianBlur stdDeviation="2" in="shadowOffsetOuter1" result="shadowBlurOuter1"></feGaussianBlur>
            <feComposite in="shadowBlurOuter1" in2="SourceAlpha" operator="out" result="shadowBlurOuter1"></feComposite>
            <feColorMatrix values="0 0 0 0 0   0 0 0 0 0   0 0 0 0 0  0 0 0 0.5 0" type="matrix" in="shadowBlurOuter1"></feColorMatrix>
        </filter>
        <polygon id="path-5" points="21.3636364 68.7058824 25.6363636 51.5294118 42.7272727 47.2352941 25.6363636 42.9411765 21.3636364 25.7647059 17.0909091 42.9411765 0 47.2352941 17.0909091 51.5294118"></polygon>
        <filter x="-21.2%" y="-16.5%" width="142.4%" height="142.2%" filterUnits="objectBoundingBox" id="filter-6">
            <feMorphology radius="0.5" operator="dilate" in="SourceAlpha" result="shadowSpreadOuter1"></feMorphology>
            <feOffset dx="0" dy="2" in="shadowSpreadOuter1" result="shadowOffsetOuter1"></feOffset>
            <feGaussianBlur stdDeviation="2" in="shadowOffsetOuter1" result="shadowBlurOuter1"></feGaussianBlur>
            <feComposite in="shadowBlurOuter1" in2="SourceAlpha" operator="out" result="shadowBlurOuter1"></feComposite>
            <feColorMatrix values="0 0 0 0 0   0 0 0 0 0   0 0 0 0 0  0 0 0 0.5 0" type="matrix" in="shadowBlurOuter1"></feColorMatrix>
        </filter>
    </defs>
    <g id="Page-1" stroke="none" stroke-width="1" fill="none" fill-rule="evenodd">
        <g id="Step-Three" transform="translate(-94.000000, -206.000000)">
            <g id="insights-24px" transform="translate(94.000000, 206.000000)">
                <rect id="Rectangle" x="0" y="0" width="206" height="206"></rect>
                <g id="Group" transform="translate(10.000000, 26.000000)" fill-rule="nonzero">
                    <g id="Path">
                        <use fill="black" fill-opacity="1" filter="url(#filter-2)" xlink:href="#path-1"></use>
                        <use stroke="#1A1A1D" stroke-width="4" fill="#4E4E50" xlink:href="#path-1"></use>
                    </g>
                    <g id="Path">
                        <use fill="black" fill-opacity="1" filter="url(#filter-4)" xlink:href="#path-3"></use>
                        <use stroke="#1A1A1D" stroke-width="3" fill="#6F2232" xlink:href="#path-3"></use>
                    </g>
                    <g id="Path">
                        <use fill="black" fill-opacity="1" filter="url(#filter-6)" xlink:href="#path-5"></use>
                        <use stroke="#1A1A1D" stroke-width="1" fill="#6F2232" xlink:href="#path-5"></use>
                    </g>
                </g>
            </g>
        </g>
    </g>
</svg>

<svg xmlns="http://www.w3.org/2000/svg" xmlns:xlink="http://www.w3.org/1999/xlink" width="206" height="206"><defs><filter id="a" width="109.6%" height="117.5%" x="-4.8%" y="-6.8%" filterUnits="objectBoundingBox"><feMorphology in="SourceAlpha" operator="dilate" radius="2" result="shadowSpreadOuter1"/><feOffset dy="2" in="shadowSpreadOuter1" result="shadowOffsetOuter1"/><feGaussianBlur in="shadowOffsetOuter1" result="shadowBlurOuter1" stdDeviation="2"/><feComposite in="shadowBlurOuter1" in2="SourceAlpha" operator="out" result="shadowBlurOuter1"/><feColorMatrix in="shadowBlurOuter1" values="0 0 0 0 0 0 0 0 0 0 0 0 0 0 0 0 0 0 0.5 0"/></filter><filter id="c" width="141.5%" height="141.4%" x="-20.8%" y="-16.8%" filterUnits="objectBoundingBox"><feMorphology in="SourceAlpha" operator="dilate" radius="1.5" result="shadowSpreadOuter1"/><feOffset dy="2" in="shadowSpreadOuter1" result="shadowOffsetOuter1"/><feGaussianBlur in="shadowOffsetOuter1" result="shadowBlurOuter1" stdDeviation="2"/><feComposite in="shadowBlurOuter1" in2="SourceAlpha" operator="out" result="shadowBlurOuter1"/><feColorMatrix in="shadowBlurOuter1" values="0 0 0 0 0 0 0 0 0 0 0 0 0 0 0 0 0 0 0.5 0"/></filter><filter id="e" width="142.4%" height="142.2%" x="-21.2%" y="-16.5%" filterUnits="objectBoundingBox"><feMorphology in="SourceAlpha" operator="dilate" radius=".5" result="shadowSpreadOuter1"/><feOffset dy="2" in="shadowSpreadOuter1" result="shadowOffsetOuter1"/><feGaussianBlur in="shadowOffsetOuter1" result="shadowBlurOuter1" stdDeviation="2"/><feComposite in="shadowBlurOuter1" in2="SourceAlpha" operator="out" result="shadowBlurOuter1"/><feColorMatrix in="shadowBlurOuter1" values="0 0 0 0 0 0 0 0 0 0 0 0 0 0 0 0 0 0 0.5 0"/></filter><path id="b" d="M170.9 42.94c-12.38 0-19.3 12.37-16.48 21.56l-30.34 30.57a17.32 17.32 0 00-8.89 0L93.4 73.17c2.9-9.19-4.01-21.64-16.5-21.64-12.38 0-19.39 12.37-16.48 21.64l-38.97 39.08C12.3 109.4 0 116.37 0 128.82 0 138.27 7.7 146 17.1 146c12.38 0 19.3-12.37 16.48-21.56l38.89-39.16c2.56.77 6.32.77 8.88 0l21.8 21.9c-2.91 9.2 4.01 21.64 16.49 21.64 12.39 0 19.4-12.36 16.49-21.64l30.42-30.49C175.7 79.53 188 72.57 188 60.12c0-9.45-7.7-17.18-17.1-17.18z"/><path id="d" d="M119.64 51.53l8.03-17.78 17.6-7.99-17.6-7.98L119.64 0l-7.87 17.78L94 25.76l17.77 8z"/><path id="f" d="M21.36 68.7l4.28-17.17 17.09-4.3-17.1-4.29-4.27-17.18-4.27 17.18L0 47.24l17.1 4.29z"/></defs><g fill="none" fill-rule="evenodd"><path d="M0 0h206v206H0z"/><g fill-rule="nonzero"><g transform="translate(10 26)"><use fill="#000" filter="url(#a)" xlink:href="#b"/><use fill="#4E4E50" stroke="#1A1A1D" stroke-width="4" xlink:href="#b"/></g><g transform="translate(10 26)"><use fill="#000" filter="url(#c)" xlink:href="#d"/><use fill="#6F2232" stroke="#1A1A1D" stroke-width="3" xlink:href="#d"/></g><g transform="translate(10 26)"><use fill="#000" filter="url(#e)" xlink:href="#f"/><use fill="#6F2232" stroke="#1A1A1D" xlink:href="#f"/></g></g></g></svg>
